!!!OTL: FRAU NACHTIGALL KLEINS VOEGELEIN
!!!ARE: Europa, Mitteleuropa, Deutschland, Siebengebirge
!!!SCT: E0413A
!!!YEM: Copyright 1995, estate of Helmut Schaffrath.
**kern
*ICvox
*Ivox
*M3/4
*k[b-]
*F:
{8f
=1
8a
16a
16g
4.f
8f
=2
8a
16a
16g
8f}
{8f
8e
8f
=3
4g
8cc
8b-
8a
8b-
=4
4cc
8r}
{8cc
8cc
16dd
16ee
=5
4ff
8cc
8cc
8b-
8a
=6
4.g}
{8f
8f
8a
=7
4cc
4g
8cc
16cc
16b-
=8
2a
8r}
==
!!!AGN: Liebes - Lied
!!!ONB: ESAC (Essen Associative Code) Database: ERK1
!!!AMT: simple triple
!!!AIN: vox
!!!EED: Helmut Schaffrath
!!!EEV: 1.0
*-
